X: 1124
T: Paddy On The Turnpike
B: max new tunes
B: steve tunes
M:4/4
L:1/8
R: reel
Q: 1/4=115
K:Ador
V:1 
AG |: "Am"EAAB A2AB | cAdB cBAG |"G" EGGF G2GA | BGAF GFED |
"Am"EAAB A2AB | cBAB cdef | "G"gage dBGB |1 "Am"cA"G"BG "Am"A2AG :|2 "Am"cA"G"BG "Am"A2cd ||
|:"Am"eaab a2af | bfaf gfed | "G"efga g2gf | bfaf gfed | 
"Am"eaab a2af | bfaf gfef |"G"gage dBGB |1 "Am"cA"G"BG "Am"A2cd :|2 "Am"cA"G"BG "Am"A2z2||
% abcbook-tune_id 62b5b3cc54b87ee2e07a5a22


% abcbook-boost 10
% abcbook-tablature 
% abcbook-transpose 
% abcbook-lastupdated 1656140443048
% abcbook-soundfonts 
% abcbook-repeats 3
% Rhythm Reel
% Titles One title
% Transcriptions Only 1 transcription
% Movement Has lots of stepwise movement
% Movement Has some stepwise movement
% Mode major
% Key G
% Time_signature 4/4
% Has_accompaniment_chords No chords

